dist/img/features_easy_integration.svg

<svg width="161" height="86" viewBox="0 0 161 86" fill="none" xmlns="http://www.w3.org/2000/svg">
<path d="M157.01 85.9352H3.10912C1.43498 85.9352 0 84.6707 0 82.9464V5.92787C0 4.20357 1.3154 2.93909 3.10912 2.93909H157.01C158.685 2.93909 160.12 4.20357 160.12 5.92787V83.0613C160 84.6707 158.685 85.9352 157.01 85.9352Z" fill="#E4F5FB"/>
<mask id="mask0" mask-type="alpha" maskUnits="userSpaceOnUse" x="0" y="0" width="161" height="86">
<path d="M157.01 86H3.10912C1.43498 86 0 84.6898 0 82.903V3.09695C0 1.31025 1.3154 0 3.10912 0H157.01C158.685 0 160.12 1.31025 160.12 3.09695V83.0222C160 84.6897 158.685 86 157.01 86Z" fill="#E4F5FB"/>
</mask>
<g mask="url(#mask0)">
<path d="M93.4426 46.2993L101.896 47.1044C103.601 47.2507 104.508 48.1655 104.399 49.7024C104.218 51.8248 101.606 52.5201 101.352 55.2279C101.17 57.2405 102.222 58.7774 105.27 59.0702C108.317 59.3629 109.623 58.0456 109.805 55.9964C110.059 53.2885 107.628 52.1175 107.809 49.9952C107.955 48.4583 109.043 47.7264 110.712 47.9094L119.165 48.7144L117.496 66.8644C117.097 71.1823 113.324 74.3659 109.043 73.9634L91.0481 72.2801L91.8463 63.754C91.9914 62.0342 91.3021 60.973 89.7783 60.8266C87.6741 60.6436 86.5131 63.0953 83.8284 62.8392C81.833 62.6562 80.5269 61.3023 80.8171 58.2651C81.1074 55.1913 82.6311 54.1301 84.6265 54.3131C87.3113 54.5693 88.0369 57.2039 90.1048 57.3869C91.6286 57.5333 92.5356 56.5819 92.6807 54.862L93.4426 46.2993Z" fill="#FC3E54"/>
<path d="M127.412 75.5201C127.412 75.5201 125.312 70.2201 124.112 68.6201C124.012 68.4201 123.912 68.3201 123.712 68.2201C123.712 68.2201 120.212 64.9201 117.712 62.7201C117.312 62.3201 117.012 62.1201 116.612 62.0201C115.212 61.9201 112.812 62.2201 109.912 62.3201C108.712 62.4201 108.112 63.0201 108.012 63.9201C107.912 64.8201 108.412 65.4201 109.612 65.5201C111.212 65.6201 114.712 65.2201 115.512 65.5201C116.112 65.7201 121.212 72.2201 121.212 72.2201L127.012 78.6201C127.712 79.6201 129.912 80.4201 130.712 79.9201C131.412 79.4201 128.112 76.5201 127.412 75.5201Z" fill="#FCBA8E"/>
<path d="M129.412 77.7202C129.412 77.7202 117.112 63.8202 115.812 65.7202C116.312 66.6202 121.512 73.0202 120.812 73.2202C118.912 73.5202 117.612 73.3202 117.312 73.2202C116.712 73.0202 116.312 73.0202 116.012 72.6202C115.812 72.4202 114.512 70.9202 114.412 70.8202C114.312 70.6202 113.812 69.7202 113.412 69.2202C112.212 67.6202 110.812 67.6202 110.012 68.1202C109.212 68.5202 109.012 69.2202 109.712 70.2202C109.712 70.2202 112.212 74.5202 113.412 75.9202C113.612 76.2202 113.812 76.4202 114.112 76.7202C115.912 78.3202 118.112 80.5202 118.112 80.5202C118.412 80.7202 119.112 81.0202 119.812 81.3202C122.312 82.4202 125.312 87.1202 125.312 87.1202C126.012 87.3202 135.612 90.3202 135.612 90.3202L138.212 88.7202C138.212 88.7202 136.912 86.0202 136.612 85.7202C135.712 84.4202 133.812 81.3202 132.912 80.7202C131.712 79.9202 130.812 79.2202 129.412 77.7202Z" fill="#FCBA8E"/>
<path d="M111.912 69.8201C111.912 69.6201 111.612 69.3201 111.412 69.2201C110.912 68.8201 110.612 68.9201 110.112 69.2201C109.512 69.6201 109.712 70.0201 109.912 70.4201C110.212 70.9201 110.312 71.0201 110.412 71.1201C110.512 71.1201 110.712 71.2201 111.312 70.7201C112.012 70.1201 111.912 69.9201 111.912 69.8201Z" fill="#FBFCFC"/>
<path d="M124.812 90.4202L134.512 81.9202L129.012 75.8202L119.312 84.3202L124.812 90.4202Z" fill="white"/>
<path d="M150.212 99.4202L132.512 79.4202L121.912 88.7202L131.412 99.4202H150.212Z" fill="#2C3E50"/>
<path d="M121.912 84.6202C122.012 84.9202 121.812 85.2202 121.512 85.3202C121.212 85.4202 120.912 85.2202 120.812 84.9202C120.712 84.6202 120.912 84.3202 121.212 84.2202C121.512 84.1202 121.812 84.3202 121.912 84.6202Z" fill="#2C3E50"/>
<path d="M74.046 13.0012L74.1096 21.6542C74.1372 23.3916 74.9191 24.4298 76.4725 24.4352C78.5683 24.4536 79.505 21.8969 82.1793 21.9268C84.1671 21.95 85.6102 23.1809 85.6081 26.2883C85.6421 29.394 84.1947 30.6046 82.2069 30.5814C79.5325 30.5515 78.5535 27.9684 76.4937 27.9484C74.9403 27.943 74.1668 28.9389 74.1584 30.6778L74.222 39.3308L65.7666 39.2603C64.0691 39.2612 63.0456 38.4186 63.0625 36.8273C63.0477 34.6825 65.5589 33.7578 65.5461 31.0211C65.5377 28.9869 64.334 27.5235 61.2972 27.4726C58.2626 27.4586 57.0801 28.8795 57.0886 30.9136C57.1013 33.6503 59.6147 34.6491 59.6295 36.7939C59.6486 38.3837 58.6462 39.1677 56.9488 39.1687L48.4934 39.0981L48.3746 20.682C48.3386 16.2817 51.7864 12.8003 56.0862 12.8324L74.046 13.0012Z" fill="#FFD22E"/>
<path d="M61.5976 27.4275C64.23 27.6057 65.2816 29.032 65.2838 30.9465C65.2964 33.6705 62.8011 34.6276 62.8137 36.7257C62.8327 38.308 63.8127 39.1116 65.503 39.1473L73.9122 39.2176L73.9754 47.8303C74.0028 49.5596 73.1999 50.5892 71.6529 50.5471C69.5685 50.5287 68.6306 47.956 65.9709 47.9263C63.994 47.9032 62.5904 49.1066 62.5883 52.1994C62.622 55.2907 64.0214 56.5175 65.9983 56.5406C68.6581 56.5704 69.5896 54.0255 71.674 54.0439C73.2188 54.0493 73.9965 55.0826 74.0239 56.8119L74.0872 65.4247L56.1898 65.2582C51.9114 65.1895 48.4382 61.6243 48.4381 57.2429L48.32 38.9125L56.7292 38.9827C58.4174 38.9818 59.4142 38.2014 59.3952 36.619C59.3805 34.4842 56.8809 33.4901 56.8683 30.7661C56.8598 28.7414 58.0337 27.2904 61.0539 27.3411C61.2372 27.4066 61.4164 27.3987 61.5976 27.4275Z" fill="#07CE9A"/>
<path d="M92.4732 13.0729C96.5472 13.3347 99.7992 16.7992 99.8267 21.0322L99.9448 39.3628L91.5354 39.2925C89.8473 39.2935 88.8504 40.0739 88.8693 41.6563C88.8841 43.7911 91.3837 44.7852 91.3964 47.5093C91.4048 49.5339 90.2309 50.9849 87.2107 50.9343C84.1926 50.9204 82.9934 49.427 82.9849 47.4023C82.9723 44.6783 85.4677 43.7212 85.455 41.6231C85.436 40.0407 84.456 39.2372 82.7657 39.2014L74.3564 39.1311L74.2931 30.5183C74.2657 28.789 75.0687 27.7595 76.6157 27.8016C78.7001 27.8199 79.638 30.3926 82.2978 30.4224C84.2747 30.4455 85.6784 29.242 85.6805 26.1492C85.6467 23.0579 84.2473 21.8311 82.2703 21.8079C79.6105 21.7782 78.679 24.323 76.5946 24.3047C75.0497 24.2993 74.272 23.2659 74.2446 21.5367L74.1813 12.9238L92.0791 13.0903C92.1845 13.0488 92.3299 13.0792 92.4732 13.0729Z" fill="#31C5FF"/>
</g>
</svg>

<svg width="161" height="86" fill="none" xmlns="http://www.w3.org/2000/svg"><path d="M157.01 85.935H3.11c-1.675 0-3.11-1.264-3.11-2.989V5.928c0-1.724 1.315-2.989 3.11-2.989h153.9c1.675 0 3.11 1.265 3.11 2.989V83.06a3.09 3.09 0 01-3.11 2.874z" fill="#E4F5FB"/><mask id="mask0" maskUnits="userSpaceOnUse" x="0" y="0" width="161" height="86"><path d="M157.01 86H3.11C1.434 86 0 84.69 0 82.903V3.097C0 1.31 1.315 0 3.11 0h153.9c1.675 0 3.11 1.31 3.11 3.097v79.925C160 84.69 158.685 86 157.01 86z" fill="#E4F5FB"/></mask><g mask="url(#mask0)"><path d="M93.443 46.3l8.453.804c1.705.147 2.612 1.062 2.503 2.598-.181 2.123-2.793 2.818-3.047 5.526-.182 2.012.87 3.55 3.918 3.842 3.047.293 4.353-1.024 4.535-3.074.254-2.708-2.177-3.879-1.996-6 .146-1.538 1.234-2.27 2.903-2.087l8.453.805-1.669 18.15c-.399 4.318-4.172 7.502-8.453 7.1L91.048 72.28l.798-8.526c.145-1.72-.544-2.781-2.068-2.927-2.104-.183-3.265 2.268-5.95 2.012-1.995-.183-3.301-1.537-3.01-4.574.29-3.074 1.813-4.135 3.808-3.952 2.685.256 3.41 2.89 5.479 3.074 1.524.146 2.43-.805 2.576-2.525l.762-8.563z" fill="#FC3E54"/><path d="M127.412 75.52s-2.1-5.3-3.3-6.9c-.1-.2-.2-.3-.4-.4 0 0-3.5-3.3-6-5.5-.4-.4-.7-.6-1.1-.7-1.4-.1-3.8.2-6.7.3-1.2.1-1.8.7-1.9 1.6-.1.9.4 1.5 1.6 1.6 1.6.1 5.1-.3 5.9 0 .6.2 5.7 6.7 5.7 6.7l5.8 6.4c.7 1 2.9 1.8 3.7 1.3.7-.5-2.6-3.4-3.3-4.4z" fill="#FCBA8E"/><path d="M129.412 77.72s-12.3-13.9-13.6-12c.5.9 5.7 7.3 5 7.5-1.9.3-3.2.1-3.5 0-.6-.2-1-.2-1.3-.6-.2-.2-1.5-1.7-1.6-1.8-.1-.2-.6-1.1-1-1.6-1.2-1.6-2.6-1.6-3.4-1.1-.8.4-1 1.1-.3 2.1 0 0 2.5 4.3 3.7 5.7.2.3.4.5.7.8 1.8 1.6 4 3.8 4 3.8.3.2 1 .5 1.7.8 2.5 1.1 5.5 5.8 5.5 5.8.7.2 10.3 3.2 10.3 3.2l2.6-1.6s-1.3-2.7-1.6-3c-.9-1.3-2.8-4.4-3.7-5-1.2-.8-2.1-1.5-3.5-3z" fill="#FCBA8E"/><path d="M111.912 69.82c0-.2-.3-.5-.5-.6-.5-.4-.8-.3-1.3 0-.6.4-.4.8-.2 1.2.3.5.4.6.5.7.1 0 .3.1.9-.4.7-.6.6-.8.6-.9z" fill="#FBFCFC"/><path d="M124.812 90.42l9.7-8.5-5.5-6.1-9.7 8.5 5.5 6.1z" fill="#fff"/><path d="M150.212 99.42l-17.7-20-10.6 9.3 9.5 10.7h18.8zm-28.3-14.8c.1.3-.1.6-.4.7-.3.1-.6-.1-.7-.4-.1-.3.1-.6.4-.7.3-.1.6.1.7.4z" fill="#2C3E50"/><path d="M74.046 13.001l.064 8.653c.027 1.738.81 2.776 2.362 2.781 2.096.019 3.033-2.538 5.707-2.508 1.988.023 3.431 1.254 3.43 4.361.033 3.106-1.414 4.317-3.402 4.293-2.674-.03-3.653-2.613-5.713-2.633-1.554-.005-2.327.99-2.336 2.73l.064 8.653-8.455-.07c-1.698 0-2.721-.842-2.704-2.434-.015-2.145 2.496-3.07 2.483-5.806-.008-2.034-1.212-3.498-4.249-3.548-3.034-.014-4.217 1.407-4.208 3.44.012 2.737 2.526 3.736 2.54 5.88.02 1.59-.983 2.375-2.68 2.376l-8.456-.07-.118-18.417c-.036-4.4 3.411-7.882 7.711-7.85l17.96.17z" fill="#FFD22E"/><path d="M61.598 27.427c2.632.179 3.684 1.605 3.686 3.52.012 2.723-2.483 3.68-2.47 5.779.019 1.582.999 2.386 2.689 2.421l8.41.07.062 8.613c.028 1.73-.775 2.76-2.322 2.717-2.085-.018-3.022-2.591-5.682-2.62-1.977-.024-3.38 1.18-3.383 4.272.034 3.092 1.433 4.319 3.41 4.342 2.66.03 3.592-2.515 5.676-2.497 1.545.005 2.322 1.039 2.35 2.768l.063 8.613-17.897-.167c-4.279-.069-7.752-3.634-7.752-8.015l-.118-18.33 8.41.07c1.687-.001 2.684-.782 2.665-2.364-.015-2.135-2.514-3.129-2.527-5.853-.008-2.025 1.166-3.476 4.186-3.425.183.066.362.058.544.086z" fill="#07CE9A"/><path d="M92.473 13.073c4.074.262 7.326 3.726 7.354 7.96l.118 18.33-8.41-.07c-1.688 0-2.685.78-2.666 2.363.015 2.135 2.515 3.13 2.527 5.853.009 2.025-1.165 3.476-4.185 3.425-3.018-.014-4.218-1.507-4.226-3.532-.013-2.724 2.483-3.68 2.47-5.779-.019-1.582-.999-2.386-2.69-2.422l-8.409-.07-.063-8.613c-.027-1.729.776-2.759 2.323-2.716 2.084.018 3.022 2.59 5.682 2.62 1.977.023 3.38-1.18 3.382-4.273-.033-3.091-1.433-4.318-3.41-4.341-2.66-.03-3.591 2.515-5.675 2.497-1.545-.006-2.323-1.04-2.35-2.768l-.064-8.613 17.898.166c.106-.041.25-.01.394-.017z" fill="#31C5FF"/></g></svg>
